X:1
T:Title
%%score { ( 1 3 ) | 2 }
L:1/8
M:4/4
K:G
V:1 treble nm="Grand Piano"
V:3 treble 
V:2 bass 
V:1
 z4 z2[Q:1/4=96] [B,D]2 | [B,G]3 [B,G] [DB]2 [DG]2 | E2 G2 D2 B2 | d3 e d2 B2 | B2 A4 D2 | %5
 [B,G]3 [B,G] [DB]2 [DG]2 | E2 G2 D2 B2 | d3 e d2 B2 | [CFA]2 [B,G]4 z2 | d4 z4 | e4 z4 | %11
 d2 e2 d2 B2 | B2 A4 D2 | [B,G]3 [B,G] [DB]2 [DG]2 | E2 G2 D2 B2 | d3 e d2 B2 | %16
[M:3/4] A2 [B,DG]4 |] %17
V:2
 z4 z2 [G,,G,]2 | [G,,D,]3 [G,,D,] [G,,G,]2 [B,,G,]2 | [C,G,C]2 [E,G,C]2 [G,B,]2[K:treble] [G,D]2 | %3
 [G,B,G]3 [G,CG] [G,B,G]2 [G,D]2 | [D,G,D]2 [D,F,D]4 [D,F,C]2 | %5
 [G,,G,]3 [G,,D,] [G,,G,]2 [B,,G,]2 | [C,G,C]2 [E,G,C]2 [G,B,]2[K:treble] [G,D]2 | %7
 [G,B,G]3 [G,CG] [G,B,G]2 [G,DG]2 | D,2 G,,4 z2 | [G,B,G]2 [G,B,]2 [G,DG]2[K:bass] [G,B,]2 | %10
 [C,C]2 [E,C]2[K:treble] [G,B,G]2 [G,B,]2 | [G,B,G]2 [G,CG]2 [G,B,G]2[K:bass] [G,D]2 | %12
 [D,G,D]2 [D,F,D]4 [D,F,C]2 | [G,,G,]3 [G,,D,] [G,,G,]2 [B,,G,]2 | %14
 [C,G,C]2 [E,G,C]2 [G,B,]2[K:treble] [G,D]2 | [G,B,G]3 [G,CG] [G,B,G]2 [G,DG]2 | %16
[M:3/4][K:bass] [D,CD]2 G,,4 |] %17
V:3
 x8 | x8 | x8 | x8 | x8 | x8 | x8 | x8 | x8 | z2 G2 B2 G2 | G2 G2 d2 G2 | x8 | x8 | x8 | x8 | x8 | %16
[M:3/4] x6 |] %17

